!!!CDT:
!!!PTL: Il primo libro de madrigali a cinque voci
!!!PPP: Ferrara
!!!PPR: Baldini
!!!PDT: 1585
!!!PUB-format:
!!!RISM: 1585-24
!!!rime: 1203
!!!AGN: Madrigal
!!!SCT: Trm1203a
!!!SCA: Trm1203a
!!!original-voices: 5
!!!extant-voices: 5
!!!complete: Y
!!!final: (C)F
!!!COM: Gherardini, Arcangelo
!!!OTL: Qual cavalier ardito
**kern	**text	**kern	**text	**kern	**text	**kern	**text	**kern	**text
*part5	*part5	*part4	*part4	*part3	*part3	*part2	*part2	*part1	*part1
*staff5	*staff5	*staff4	*staff4	*staff3	*staff3	*staff2	*staff2	*staff1	*staff1
*I"Basso	*	*I"Tenore	*	*I"Alto	*	*I"Quinto	*	*I"Canto	*
*I'B	*	*I'T	*	*I'A	*	*I'V	*	*I'C	*
*oclefF4	*	*oclefC4	*	*oclefC3	*	*oclefC1	*	*oclefC1	*
*clefF4	*	*clefGv2	*	*clefGv2	*	*clefG2	*	*clefG2	*
*k[b-]	*	*k[b-]	*	*k[b-]	*	*k[b-]	*	*k[b-]	*
*F:	*	*F:	*	*F:	*	*F:	*	*F:	*
*omet(C)	*	*omet(C)	*	*omet(C)	*	*omet(C)	*	*omet(C)	*
*M4/2	*	*M4/2	*	*M4/2	*	*M4/2	*	*M4/2	*
=1	=1	=1	=1	=1	=1	=1	=1	=1	=1
!!LO:TX:a:t=[Prima parte.]
0r	.	1r	.	1r	.	2r	.	2dd	Qua-
.	.	.	.	.	.	2dd	Qua-	4g	-si
.	.	.	.	.	.	.	.	4a	Guer-
.	.	2r	.	4r	.	4g	-si	4b-y	-rie-
.	.	.	.	4d	Qua-	4a	Guer-	4cc	-r'ar-
.	.	2d	Qua-	4G	-si	4b-y	-rie-	2dd	-di-
.	.	.	.	4A	Guer-	4cc	-r'ar-	.	.
=2	=2	=2	=2	=2	=2	=2	=2	=2	=2
0r	.	4G	-si	4B-y	-rie-	2dd	-di-	4b-y	-to,
.	.	4A	Guer-	4c	-r'ar-	.	.	4dd	Qua-
.	.	4B-y	-rie-	2d	-di-	4b-y	-to,	4dd	-si
.	.	4c	-r'ar-	.	.	4g	<Qua-	4cc	Guer-
.	.	2d	-di-	4G	-to,	4dd	-si	4b-y	-rie-
.	.	.	.	4G	Qua-	4cc	Guer-	4a	-r'ar-
.	.	4G	-to,	4d	-si	4b-y	-rie-	4.g	-di-
.	.	4G	<Qua-	4c	guer-	4a	-r'ar-	.	.
.	.	.	.	.	.	.	.	8a	.
=3	=3	=3	=3	=3	=3	=3	=3	=3	=3
0r	.	4d	-si	4B-y	-rie-	2.g	-di-	4b-y	.
.	.	4c	Guer-	4A	-r'ar-	.	.	4cc	.
.	.	4B-y	-rie-	2.G	-di-	.	.	2dd	.
.	.	4A	-r'ar-	.	.	4a	.	.	.
.	.	2G	-di-	.	.	2b-y	.	2dd	-to,
.	.	.	.	4A	.	.	.	.	.
.	.	4G	-to,>	4B-y	.	4b-y	-to,>	2dd	Ch'al-
.	.	4G	Ch'al-	4c	.	4b-y	Ch'al-	.	.
=4	=4	=4	=4	=4	=4	=4	=4	=4	=4
0r	.	4.B-y	-le	4d	-to,	4.b-y	-le	4b-y	-le
.	.	.	.	4f	Ch'al-	.	.	4b-y	fa-
.	.	8c	fa-	.	.	8b-y	fa-	.	.
.	.	4d	-mo-	4.d	-le	4.f	-mo-	4a	-mo-
.	.	4d	-se	.	.	.	.	4b-y	-se
.	.	.	.	8e	fa-	8f	-se	.	.
.	.	2c	pro-	4f	-mo-	2g	pro-	2cc	pro-
.	.	.	.	4e	-se	.	.	.	.
.	.	2F	-ve	2f	pro-	2a	-ve	2cc	-ve
=5	=5	=5	=5	=5	=5	=5	=5	=5	=5
2.F	Il	2.A	Il	4c	-ve	2.cc	Il	2.a	Il
.	.	.	.	2c	Il	.	.	.	.
4F	ca-	4A	ca-	4c	ca-	4cc	ca-	4a	ca-
2F	-no-	1A	-no-	2c	-no-	2cc	-no-	2a	-no-
[2D	-ro	.	.	[2d	-ro	2dd	-ro	[2f	-ro
=6	=6	=6	=6	=6	=6	=6	=6	=6	=6
2D]	.	2A	-ro	2d]	.	1a	me-	2f]	.
2C#X	me-	2A	me-	2e	me-	.	.	2e	me-
1D	-tal-	2.F	-tal-	1f	-tal-	1a	-tal-	1d	-tal-
.	.	4G	.	.	.	.	.	.	.
=7	=7	=7	=7	=7	=7	=7	=7	=7	=7
1AA	-lo	2A	-lo	2e	-lo	1a	-lo	4c	-lo
.	.	.	.	.	.	.	.	4e	ac-
.	.	4r	.	2e	ac-	.	.	2.a	-cen-
.	.	4A	<ac-	.	.	.	.	.	.
1r	.	4F	-cen-	4d	-cen-	4r	.	.	.
.	.	4G	-d'e	4d	-d'e	4dd	ac-	4g	-d'e
.	.	2A	muo	2a	muo-	2cc#X	-cen-	2e	muo-
=8	=8	=8	=8	=8	=8	=8	=8	=8	=8
0r	.	4D	ve,> Il	4f	-ve, <Il	2dd	-d'e	4a	-ve,<Il
.	.	4d	ca-	4d	ca-	.	.	4f	ca-
.	.	4c#X	-no-	4A	-no-	2a	muo-	4e	-no-
.	.	4d	-ro	4d	-ro	.	.	4d	-ro
.	.	4A	me-	4c#X	me-	4a	-ve,	4e	me-
.	.	8DL	-tal-	8dL	-tal-	4f	<ac-	8a	-tal-
.	.	8AJ	.	8dJ	.	.	.	8a	-lo ac-
.	.	4A	-cen-	4e	-cen-	4e	-cen-	4a	-cen-
.	.	4d	-d'e	4f	-d'e	4d	-d'e	4a	-d'e
=9	=9	=9	=9	=9	=9	=9	=9	=9	=9
2r	.	2e	muo-	2e	muo-	2c#X	muo-	2a	muo-
2D	ve	2A	-ve,	2.f	-ve,>	4d	-ve,>	4a	-ve,>
.	.	.	.	.	.	4d	Tal	4a	Tal-
1BB-y	Tal	4r	.	.	.	8d	zan-	8b-y	-zan-
.	.	.	.	.	.	8cnXi	-za-	8a	-za-
.	.	4B-y	Tal	4f	Tal	8d	-ret-	8b-y	-ret-
.	.	.	.	.	.	8e	-ta	8cc	-ta
.	.	8B-y	zan-	8d	zan-	2f	fie-	2dd	fie-
.	.	8A	-za-	8cnXi	-za-	.	.	.	.
.	.	8G	-ret-	8B-y	-ret-	.	.	.	.
.	.	8A	-ta	8c	-ta	.	.	.	.
=10	=10	=10	=10	=10	=10	=10	=10	=10	=10
8BB-y	zan-	2B-y	fie-	4d	fie-	8f	-ra,	4b-y	-ra,
8C	-za-	.	.	.	.	8e	<Tal	.	.
8D	-ret-	.	.	8d	-ra,	8f	zan-	4b-y	<Tal
8E	-ta	.	.	8d	<Tal	8g	-za-	.	.
2F	fie-	4A	-ra,	8c	zan-	8a	-ret-	8f	zan-
.	.	.	.	8B-y	-za-	8b-y	-ta	8g	-za-
.	.	4F	<Tal	8A	-ret-	4ccnXi	fie-	8a	-ret-
.	.	.	.	8B-y	-ta	.	.	8b-y	-ta
2F	-ra	8F	zan-	4c	fie-	4a	-ra>	4cc	fie-
.	.	8G	-za-	.	.	.	.	.	.
.	.	8A	-ret-	4c	-ra>	4cc	Sus-	4a	-ra>
.	.	8B-y	-ta	.	.	.	.	.	.
2FF	Sus-	4c	fie-	4c	Sus-	8ccL	-sur-	4a	Sus-
.	.	.	.	.	.	8b-y	.	.	.
.	.	8A	-ra>	8cL	-sur-	8cc	.	8aL	-sur-
.	.	8A	Sus-	8B-yJ	.	8ddJ	.	8gJ	.
=11	=11	=11	=11	=11	=11	=11	=11	=11	=11
8FFL	-sur-	8AL	-sur-	8cL	.	4cc	.	8aL	.
8EE	.	8G	.	8dJ	.	.	.	8b-yJ	.
8FF	.	8A	.	4c	.	4cc	-r'in-	4a	-r'in-
8GGJ	.	8B-yJ	.	.	.	.	.	.	.
2.FF	.	4.c	.	4c	-r'in-	4.a	-tor-	4a	-tor-
.	.	.	.	8FL	-tor-	.	.	4.cc	.
.	.	8B-y	.	8GJ	.	8g	.	.	.
.	.	8cL	.	8AL	.	8aL	.	.	.
.	.	8dJ	.	8G	.	8b-yJ	.	8b-yL	.
4FF	-r'in-	4c	.	8A	.	4a	.	8cc	.
.	.	.	.	8B-yJ	.	.	.	8ddJ	.
2FF	-tor-	4c	-ra,	4c	.	4a	-no,	4cc	.
.	.	4A	Sus-	4c	-no,	4f	Sus-	4cc	-no,
=12	=12	=12	=12	=12	=12	=12	=12	=12	=12
0FF	-no	8AL	-sur-	4c	sus-	8fL	-sur-	4a	Sus-
.	.	8G	.	.	.	8e	.	.	.
.	.	8A	.	8cL	-sur-	8f	.	8aL	-sur-
.	.	8B-yJ	.	8B-yJ	.	8gJ	.	8gJ	.
.	.	4A	.	8cL	.	4f	.	8aL	.
.	.	.	.	8dJ	.	.	.	8b-yJ	.
.	.	4A	-r'in-	4c	.	4f	-r'in-	4a	.
.	.	8cL	-tor-	4c	-r'in-	8aL	-tor-	4a	-r'in-
.	.	8B-y	.	.	.	8g	.	.	.
.	.	8c	.	8AL	-tor-	8a	.	8fL	-tor-
.	.	8dJ	.	8GJ	.	8b-yJ	.	8eJ	.
.	.	4c	.	8AL	.	4a	.	8fL	.
.	.	.	.	8B-yJ	.	.	.	8gJ	.
.	.	4c	-n'e	4A	.	4a	-n'e	4f	.
=13	=13	=13	=13	=13	=13	=13	=13	=13	=13
1r	.	2c	vo-	2A	-n'e	4cc	vo-	4f	-n'e
.	.	.	.	.	.	4a	-la,	8ccL	vo-
.	.	.	.	.	.	.	.	8b-yJ	.
.	.	2B-y	-la,	2d	vo-	4f	e	8aL	.
.	.	.	.	.	.	.	.	8gJ	.
.	.	.	.	.	.	8fL	vo-	4f	.
.	.	.	.	.	.	8gJ	.	.	.
4F	vo-	2A	e	4.c	-la,	8aL	.	4f	-la,
.	.	.	.	.	.	8b-yJ	.	.	.
8EL	.	.	.	.	.	2cc	.	4f	e
8DJ	.	.	.	8f	e	.	.	.	.
4C	.	4c	vo-	4e	vo-	.	.	4g	vo-
4FF	-la,	4A	-la,	4f	-la,	4cc	-la	4a	-la,
=14	=14	=14	=14	=14	=14	=14	=14	=14	=14
0r	.	2B-y	E	4r	.	4r	.	4r	.
.	.	.	.	4d	E	4b-y	E	4f	E
.	.	2c	vi	4e	vi	4.g	vi	4.e	vi
.	.	.	.	4c	per-	.	.	.	.
.	.	.	.	.	.	8a	per-	8f	per-
.	.	2G	per-	4d	-cos-	2b-y	-cos-	4g	-cos-
.	.	.	.	4d	-se	.	.	4g	-se
.	.	4d	-cos-	2d	poi	2a	-se	[2f#X	poi
.	.	4d	-se	.	.	.	.	.	.
=15	=15	=15	=15	=15	=15	=15	=15	=15	=15
!	!	!LO:TX:a:t=Sic	!	!	!	!	!	!	!
0r	.	4G	poi	2r	.	4bnX	poi	4f#]	.
.	.	4c	la	.	.	4cc	la	4g	la
.	.	4c	bian-	4r	.	4cc	bian-	4g	bian-
.	.	4A	-ca	4c	la	4cc	-ca	4f#X	-ca
.	.	1G	go-	4d	bian-	4bnX	go-	1g	go-
.	.	.	.	4e	-ca	2cc	.	.	.
.	.	.	.	2d	go-	.	.	.	.
.	.	.	.	.	.	4bnX	.	.	.
=16	=16	=16	=16	=16	=16	=16	=16	=16	=16
2r	.	2c	-la,	2e	-la,	2cc	-la:	2g	-la:
2BB-y	la	2B-y	la	2d	<la	2r	.	2r	.
4BB-y	bian-	4B-y	bian-	4d	bian-	1r	.	1r	.
4BB-y	-ca	4B-y	-ca	4B-y	-ca	.	.	.	.
2F	go-	2A	go-	2c	go-	.	.	.	.
=17	=17	=17	=17	=17	=17	=17	=17	=17	=17
4BB-y	-la:	2B-y	-la:	4d	-la:>	1r	.	4r	.
4BB-y	O	.	.	4d	O	.	.	4b-y	O
4.B-y	pro-	2r	.	4.d	pro-	.	.	4.g	pro-
8A	-vi-	.	.	8c	-vi-	.	.	8a	-vi-
4G	-da	2r	.	4d	-da	2r	.	4b-y	-da
4F#X	Guer	.	.	4d	Guer-	.	.	4a	Guer-
2r	.	4r	.	4d	-rie-	4r	.	4g	-rie-
.	.	4A	O	8d	-ra,	4dd	O	4f#X	-ra,
.	.	.	.	8d	<O	.	.	.	.
=18	=18	=18	=18	=18	=18	=18	=18	=18	=18
1r	.	4.B-y	pro-	4.d	pro-	4.g	pro-	1r	.
.	.	8A	-vi-	8c	-vi-	8a	-vi-	.	.
.	.	4G	-da	4d	-da	4b-y	-da	.	.
.	.	4F#X	Guer-	4d	Guer-	4a	Guer-	.	.
2r	.	4G	-rie-	4d	-rie-	4g	-rie-	4r	.
.	.	4D	-ra,	4d	-ra,>	4f#X	-ra,	4a	<O
4.FnXi	O	2A	<O	2c	<O	2a	<O	4.fnXi	pro-
8E	pro-	.	.	.	.	.	.	8g	-vi-
=19	=19	=19	=19	=19	=19	=19	=19	=19	=19
4D	-vi-	4.FnXi	pro-	4.d	pro-	4.a	pro-	4f	-da
4BB-y	-da	.	.	.	.	.	.	4f	Guer-
.	.	8F	-vi-	8d	-vi-	8b-y	-vi-	.	.
8C	Guer-	4c	-da	2.c	-da	4g	-da	2e	-rie-
8BB-yL	-rie-	.	.	.	.	.	.	.	.
8AA	.	4C	Guer-	.	.	4a	Guer-	.	.
8GGJ	.	.	.	.	.	.	.	.	.
1FF	.	8FL	-rie-	.	.	2.cc	-rie-	2f	-ra,>
.	.	8E	.	.	.	.	.	.	.
.	.	8F	.	4A	Guer-	.	.	.	.
.	.	8GJ	.	.	.	.	.	.	.
.	.	4.A	.	4c	-rie-	.	.	4r	.
.	.	.	.	4c	-ra!>	8b-yL	.	4f	<O
.	.	8B-y	.	.	.	8aJ	.	.	.
=20	=20	=20	=20	=20	=20	=20	=20	=20	=20
1C	.	2c	.	4r	.	4g	.	4.cc	pro-
.	.	.	.	4c	<O	4f	-ra!	.	.
.	.	.	.	.	.	.	.	8b-y	-vi-
.	.	2c	-ra!>	4.f	pro-	2r	.	4a	-da
.	.	.	.	.	.	.	.	4g	Guer-
.	.	.	.	8e	-vi-	.	.	.	.
2GG	-ra!	2r	.	4g	-da	2.dd	A	2b-y	-rie-
.	.	.	.	4g	Guer-	.	.	.	.
2D	A	[2F	A	2f	-rie-	.	.	4a	-ra!>
.	.	.	.	.	.	[4a	cui	4a	A
=21	=21	=21	=21	=21	=21	=21	=21	=21	=21
2AA	cui	4F]	.	4e	-ra!>	4a]	.	4cc	cui
.	.	2A	cui	2e	A	2cc	na-	4cc	na-
2C	na-	.	.	.	.	.	.	4.g	-tu-
.	.	4E	na-	2g	cui	4.g	-tu-	.	.
.	.	.	.	.	.	.	.	8a	-r'ag-
4.GG	-tu-	4G	-tu-	.	.	.	.	2b-y	-giun-
.	.	.	.	.	.	8a	-r'ag-	.	.
.	.	4G	-r'ag-	4d	na-	2b-y	-giun-	.	.
8AA	-r'ag-	.	.	.	.	.	.	.	.
2BB-y	-giun-	2F	-giun-	4d	-tu-	.	.	[2f	-ge
.	.	.	.	4d	-r'ag-	4b-y	-ge	.	.
=22	=22	=22	=22	=22	=22	=22	=22	=22	=22
2.FF	-ge	4F	-ge	2c	-giun-	1a	La	4f]	.
.	.	4F	La	.	.	.	.	4a	La
.	.	2f	trom-	4c	-ge	.	.	2cc	trom-
4r	.	.	.	4c	La	.	.	.	.
1r	.	4c	-ba,	2f	trom-	2cc	trom-	4a	-ba,
.	.	4c	La	.	.	.	.	4a	La
.	.	2f	trom-	4c	-ba,	4a	-ba,	2cc	trom-
.	.	.	.	4c	<La	4a	La	.	.
=23	=23	=23	=23	=23	=23	=23	=23	=23	=23
1r	.	4c	-ba,	2f	trom-	2cc	trom-	4a	-ba,
.	.	4c	<La	.	.	.	.	4a	<La
.	.	2f	trom-	4c	-ba,>	4a	-ba,	2cc	trom-
.	.	.	.	4c	<La	4a	<la	.	.
2r	.	2c	-ba,>	2f	trom-	2cc	trom-	2a	-ba,>
4r	.	2r	.	2c	-ba,>	4a	-ba,>	2cc	A
4F	A	.	.	.	.	4a	A	.	.
=24	=24	=24	=24	=24	=24	=24	=24	=24	=24
4.A	cui	1r	.	0r	.	4.f	cui	4.cc	cui-
8B-y	na-	.	.	.	.	8f	ag-	16b-yL	-na-
.	.	.	.	.	.	.	.	16aJ	.
4c	-tu-	.	.	.	.	4e	-giun-	4g	-tu-
4F	-r'ag-	.	.	.	.	4f	-ge	4a	-r'ag-
2C	-giun-	2r	.	.	.	2e	.	2g	-giun-
[2F	-ge	4r	.	.	.	4.f	.	4a	-ge
.	.	4c	La	.	.	.	.	4f	La
.	.	.	.	.	.	8g	.	.	.
=25	=25	=25	=25	=25	=25	=25	=25	=25	=25
2F]	.	2c	trom-	2A	<La	4a	.	2f	trom-
.	.	.	.	.	.	4a	La	.	.
2F	La	4A	-ba,	2c	trom-	2f	trom-	4c	-ba,
.	.	4A	<La	.	.	.	.	4c	<La
[1FF	trom-	2F	trom-	4A	-ba,>	4c	-ba,	2f	trom-
.	.	.	.	4A	<La	4c	<La	.	.
.	.	4F	-ba,>	2F	trom-	2f	trom-	4c	-ba,>
.	.	4c	<La	.	.	.	.	4c	<La
=26	=26	=26	=26	=26	=26	=26	=26	=26	=26
1FF]	.	2A	trom-	4F	-ba,>	4c	-ba,>	2cc	trom-
.	.	.	.	4A	<La	4c	<La	.	.
.	.	4F	-ba,>	2c	trom-	2cc	trom-	4a	-ba,>
.	.	4F	<La	.	.	.	.	4a	<La
1FF	-ba,	2A	trom-	4c	-ba,>	8a	-ba,>	2f	trom-
.	.	.	.	.	.	8a	<La	.	.
.	.	.	.	4A	<La	4cc	trom-	.	.
.	.	2F	-ba> e	2c	trom-	4a	-ba,>	4f	-ba,>
.	.	.	.	.	.	4a	<La	4cc	<la
=27	=27	=27	=27	=27	=27	=27	=27	=27	=27
0r	.	0G	l'ar-	2.d	-ba,>	4dd	trom-	4bnX	trom-
.	.	.	.	.	.	4cc	-ba>e	4cc	-ba> e
.	.	.	.	.	.	4bnX	l'ar-	4dd	l'ar-
.	.	.	.	4e	<La	4cc	.	4cc	.
.	.	.	.	4d	trom-	4dd	.	4bni	.
.	.	.	.	4c	-ba> e	4ee	.	2cc	.
.	.	.	.	2d	l'ar-	2dd	.	.	.
.	.	.	.	.	.	.	.	4bni	.
=28	=28	=28	=28	=28	=28	=28	=28	=28	=28
2r	.	2c	-me,	1e	-me,	2g	-me,	1cc	-me,
2C	on-	2G	on-	.	.	2g	on-	.	.
2GG	-d'el-	4.G	-d'el-	4r	.	4.b-i	-d'el-	4r	.
.	.	.	.	4d	on-	.	.	4dd	on-
.	.	8A	-la	.	.	8cc	-la	.	.
2GG	-la	4B-y	suo-	4.G	-d'el-	4dd	suo-	4.b-i	-d'el-
.	.	4G	-na,	.	.	4b-y	-na,	.	.
.	.	.	.	8A	-la	.	.	8cc	-la
=29	=29	=29	=29	=29	=29	=29	=29	=29	=29
1.BB-y	suo-	4r	.	4B-y	suo-	4r	.	4dd	suo-
.	.	4d	<on-	4G	-na,	4dd	<on-	4b-y	-na,
.	.	4.d	-d'el-	4r	.	4.b-y	-d'el-	4r	.
.	.	.	.	4d	<on-	.	.	4dd	<on-
.	.	8e	-la	.	.	8cc	-la	.	.
.	.	4f	suo-	4.d	-d'el-	4dd	suo-	4.b-y	-d'el-
.	.	4d	-na,>	.	.	4b-y	-na,>	.	.
.	.	.	.	8e	-la-	.	.	8cc	-la
2BB-y	-n'e	4r	.	4f	-suo-	4r	.	4dd	suo-
.	.	4G	on-	4d	-na,>	4dd	on-	8b-y	-na,>
.	.	.	.	.	.	.	.	8b-y	on-
=30	=30	=30	=30	=30	=30	=30	=30	=30	=30
0FF	pun-	4.A	-d'el-	4r	.	4.cc	-d'el-	4.a	-d'el-
.	.	.	.	4c	on-	.	.	.	.
.	.	8G	-la	.	.	8b-y	-la	8b-y	-la
.	.	4F	suo-	4.c	-d'el-	4a	suo-	4cc	suo-
.	.	4F	-n'e	.	.	4cc	-n'e	4a	-n'e
.	.	.	.	8d	-la	.	.	.	.
.	.	4.A	pun-	4c	suo-	1cc	pun-	4.f	pun-
.	.	.	.	4c	-n'e	.	.	.	.
.	.	8G	.	.	.	.	.	8g	.
.	.	2F	.	2f	pun-	.	.	2a	.
=31	=31	=31	=31	=31	=31	=31	=31	=31	=31
0Cl	-ge.	0Gl	-ge.	0el	-ge.	0ccl	-ge.	0gl	-ge.
=||	=||	=||	=||	=||	=||	=||	=||	=||	=||
*-	*-	*-	*-	*-	*-	*-	*-	*-	*-
!!!system-decoration: [*]
!!!RDF**kern: i = editorial accidental
!!!RDF**kern: l = terminal long
!!!ENC: Emiliano Ricciardi
!!!END: 2019
!!!EED: Ricciardi, Emiliano
!!!EEV: 2019/02/22
!!!YEC: Copyright 2018 Emiliano Ricciardi, All Rights Reserved
!!!ONB: Translated from MusicXML on 2019/02/22 and edited by Craig Stuart Sapp
!!@@BEGIN:	VERSEDATA
!!@SOLERTI:	1203
!!@CATALOGNUM:	Trm1203
!!@LAST_MODIFIED: 2020/07/12
!!@TITLE:		Qual cavalier ardito
!!@GENRE:		madrigale
!!@MANUSRC:	I<sub>4</sub>
!!@PRINTSRC:	27, 70, 141, 145, 166, 169
!!@@BEGIN:	VERSES
!!@ABOUTIT:	Loda la zanzara.
!!@ABOUTEN:	It praises a mosquito.
!!@EDITOR:	Solerti, Angelo
!!@EDITION_TITLE: Le Rime di Torquato Tasso
!!@EDITION_LOC:	Bologna
!!@EDITION_PUB:	Romagnoli-Dall’Acqua
!!@EDITION_DATE:  1898-1902
!!@EDITION_VOL:	4
!!@EDITION_PAGE:  237
!!@TRANSLATOR:	Emiliano Ricciardi and Amyrose McCue Gill
!!@VERSE:
!!	Qual cavaliero ardito
!!	A le famose prove
!!	Il sonoro metallo accende e move,
!!	Tal zanzaretta fiera
!!	Zufola intorno e vola,
!!	E vi percuote poi la bianca gola.
!!	Oh mirabil guerriera!
!!	In cui natura giunge
!!	La tromba a l'arme, ond'ella suona e punge.
!!@TVERSE:
!!	[Like] that daring knight [who],
!!	At renowned tournaments
!!	The ringing metal ignites and brandishes,
!!	So the proud little mosquito
!!	Whistles around and flies,
!!	And then strikes your white throat:
!!	O wondrous warrior lady!
!!	In whom nature joins
!!	The call to arms, which she sounds and stings.
!!@@END:		VERSES
!!@OTHER_CRIT_ED:   None
!!@ATTRIBUTION_ABOUT:	Secure
!!		<br>
!!		This poem is attributed to Tasso in two independent sources, a manuscript and a 1586 with its reprints (see Literary Sources).
!!@DATING:	In or before 1585
!!		<br>
!!		The earliest appearance of this poem is in a musical setting by Arcangelo Gherardini published in 1585 (see Literary Sources).
!!@DEDICATEE:
!!@COMMENTARY:
!!@@END:		VERSEDATA
!!@@BEGIN:	SETTING
!!@CATALOGNUM:	Trm1203a
!!@RIMETITLE:	Qual cavalier ardito
!!@SOLERTI:	1203
!!@COMPOSER:	Gherardini, Arcangelo
!!@PRINCEPSTITLE:	Il primo libro de madrigali a cinque voci
!!@PRINCEPSLOC:	Ferrara
!!@NORMLOC:	Ferrara
!!@NORMPUB:	Baldini
!!@NORMPUBSHORT:	Baldini
!!@PRINCEPSPUB:	Baldini
!!@PRINCEPSYEAR:	1585
!!@PRINCEPSRISM:	1585-24
!!@REPRINTS:	
!!@OVOICES:	5
!!@EXTANTVOICES:	5
!!@PARTBOOKS:	
!!@EXTPARTBOOKS:	
!!@OCLEFS:	C1,C1,C3,C4,F4
!!@OMENSURATION:	C
!!@OKEYSIG:	b-
!!@FINAL:	(C)F
!!@TIMPEDITOR:	Ricciardi, Emiliano
!!@NOTE:		
!!@@END:		SETTING
